posts/2023-04-12/visual-book-recommender/imgs-web/contrastive_loss.svg

<svg xmlns="http://www.w3.org/2000/svg" xmlns:xlink="http://www.w3.org/1999/xlink" width="404.064" height="22.48" viewBox="0 -948 22324.4 1242.2" xmlns:v="https://vecta.io/nano"><defs><path id="A" d="M62 -22T47 -22T32 -11Q32 -1 56 24T83 55Q113 96 138 172T180 320T234 473T323 609Q364 649 419 677T531 705Q559 705 578 696T604 671T615 645T618 623V611Q618 582 615 571T598 548Q581 531 558 520T518 509Q503 509 503 520Q503 523 505 536T507 560Q507 590 494 610T452 630Q423 630 410 617Q367 578 333 492T271 301T233 170Q211 123 204 112L198 103L224 102Q281 102 369 79T509 52H523Q535 64 544 87T579 128Q616 152 641 152Q656 152 656 142Q656 101 588 40T433 -22Q381 -22 289 1T156 28L141 29L131 20Q111 0 87 -11Z"/><path id="B" d="M56 347q0 13 14 20h637q15-8 15-20 0-11-14-19l-318-1H72q-16 5-16 20zm0-194q0 15 16 20h636q14-10 14-20 0-13-15-20H70q-14 7-14 20z"/><path id="C" d="M94 250Q94 319 104 381T127 488T164 576T202 643T244 695T277 729T302 750H315H319Q333 750 333 741Q333 738 316 720T275 667T226 581T184 443T167 250T184 58T225 -81T274 -167T316 -220T333 -241Q333 -250 318 -250H315H302L274 -226Q180 -141 137 -14T94 250Z"/><path id="D" d="M213 578l-13-5q-14-5-40-10-26-5-58-7H83v46h19q47 2 87 15 40 13 56 24 16 11 28 22 2 3 12 3 9 0 17-6V361l1-300q7-7 12-9 5-2 24-4 19-2 62-2h26V0h-11q-21 3-159 3-136 0-157-3H88v46h26q22 0 38 0 16 0 25 1 9 1 16 3 7 2 8 2 1 0 6 5 5 5 6 4v517z"/><path id="E" d="M84 237T84 250T98 270H679Q694 262 694 250T679 230H98Q84 237 84 250Z"/><path id="F" d="M21 287q0 14 15 48 15 34 48 71 33 37 74 36 41 0 66-23 25-23 26-64-2-19-3-21 0-3-16-46-16-43-33-97-17-54-16-86 0-43 14-60 14-17 42-18 23 0 43 11 20 11 31 23 11 12 27 33 0 1 5 20 5 19 14 59 9 40 19 74 38 150 42 157 13 27 43 27 13 0 21-7 8-7 11-12 3-5 2-9 0-13-49-210Q398-4 391-23q-28-83-97-132-69-49-138-50-45 0-79 22-34 22-34 66 0 22 7 37 7 15 19 22 12 7 20 10 8 3 17 3 44 0 44-42 0-20-12-35-12-15-23-20-11-5-13-5l-3-1q2-5 19-12 17-7 34-7h8q17 0 26 2 33 9 61 38 28 29 43 62 15 33 23 56 8 23 8 30l-6-4q-6-4-19-11-13-7-26-12-20-5-39-5-46 0-81 22-35 22-46 71-1 7-1 31 0 57 35 149 35 92 35 117 0 1 0 2 0 9 0 12 0 3-4 7-4 4-11 4h-4q-23 0-42-19-19-19-30-41-11-22-17-42-6-20-8-22-2-2-16-2H27q-6 6-6 9z"/><path id="G" d="M60 749l4 1q5 0 10 0h12l28-24q94-85 137-212 43-127 43-264 0-68-10-131-10-63-23-107-13-44-37-88-24-44-38-67-14-23-41-51-27-28-32-33-5-5-23-19-3-3-4-4H74q-8 0-11 0-3 0-5 3-2 3-3 9 1 1 11 13Q221-64 221 250q0 314-155 475-10 12-11 13 0 8 5 11z"/><path id="H" d="M78 250Q78 274 95 292T138 310Q162 310 180 294T199 251Q199 226 182 208T139 190T96 207T78 250Z"/><path id="I" d="M366 683q1 0 72 5 71 5 73 6 12 0 12-8 0-7-73-302-73-295-75-301-2-6-1-15 0-42 28-42 9 1 20 9 21 20 41 96 6 20 10 21 2 1 10 1h4 4q15 0 15-8 0-5-3-16-13-50-30-81-17-31-28-40-11-9-28-16-8-2-24-2-34 0-57 15-23 15-30 31l-6 15q-1 1-4-1-2-2-4-4-59-56-120-56-55 0-97 40-42 40-42 127 0 48 20 98 20 50 48 86 47 57 94 79 47 22 85 22 56 0 84-42 5-6 5-4 1 4 27 109 26 105 28 111 0 13-7 16-7 3-39 5h-21q-6 6-6 8 0 2 2 19 5 19 13 19zm-14-357q-23 79-75 79-35 0-67-31-32-31-50-81-29-79-41-164 0-3 0-11 0-8-1-12 0-45 18-62 18-17 43-18 54 0 111 72l8 11 54 217z"/><path id="J" d="M52 289q7 42 54 97 47 55 116 56 35 0 64-18 29-18 43-45 42 63 101 63 37 0 64-22 27-22 28-59 0-29-14-47-14-18-27-22-13-4-23-4-19 0-31 11-12 11-12 29 0 46 50 63-11 13-40 13-13 0-19-2-38-16-56-66-60-221-60-258 0-28 16-40 16-12 35-12 37 0 73 33 36 33 49 81 3 10 6 11 3 1 16 2h4q15 0 15-8 0-1-2-11-16-57-62-101-46-44-107-44-70 0-106 63-41-62-94-62h-6q-49 0-70 26-21 26-22 55 0 32 19 52 19 20 45 20 43 0 43-42 0-20-12-35-12-15-23-20-11-5-13-5l-3-1q0-1 6-4 6-3 16-7 10-4 19-3 36 0 62 45 9 16 23 68 14 52 28 108 14 56 16 66 5 27 5 39 0 28-15 40-15 12-34 12-40 0-75-32-35-32-49-82-2-9-5-10-3-1-16-2H58q-6 6-6 11z"/><path id="K" d="M184 600q0 24 19 42 19 18 44 19 18 0 30-12 12-12 13-30 0-23-20-42-20-19-44-20-15 0-28 10-13 10-14 33zM21 287q0 8 9 31 9 23 24 51 15 28 44 51 29 23 60 22 39 0 65-23 26-23 27-62 0-17-14-56-14-39-40-105-26-66-42-113-5-22-5-32 0-25 17-25 9 0 19 3 10 3 23 14 13 11 27 35 14 24 25 59 3 12 5 14 2 2 17 2 20 0 20-10 0-8-9-31-9-23-25-51-16-28-45-50-29-22-62-22-32 0-59 21-27 21-28 64 0 17 5 32 5 15 43 114 38 101 44 121 6 20 7 39 0 24-17 24h-2q-30 0-55-33-25-33-38-84-1-1-2-3-1-2-1-3 0-1-2-2-2-1-3-1-1 0-4 0-3 0-8 0H27q-6 6-6 9z"/><path id="L" d="M78 35T78 60T94 103T137 121Q165 121 187 96T210 8Q210 -27 201 -60T180 -117T154 -158T130 -185T117 -194Q113 -194 104 -185T95 -172Q95 -168 106 -156T131 -126T157 -76T173 -3V9L172 8Q170 7 167 6T161 3T152 1T140 0Q113 0 96 17Z"/><path id="M" d="M297 596q0 31 21 48 21 17 43 17 17 0 28-10 11-10 14-28 0-28-19-47-19-19-44-19-18 0-30 10-12 10-13 29zm-9-220q0 29-26 29-22 0-42-12-20-12-35-31-15-19-24-37-9-18-17-32l-7-14q-2-1-16-1h-14q-6 6-6 8 0 2 4 13 21 49 59 92 38 43 88 50 1 0 8 0 7 0 12 1 24-1 44-10 25-14 38-31 13-17 13-53v-16l-49-199Q267-67 264-75q-18-50-70-89-52-39-119-40-50 0-68 21-18 21-19 46 0 27 19 46 19 19 46 20 17 0 29-10 12-10 13-31 0-36-32-55 6-1 14-1 34 0 62 28 28 28 43 66l11 42q11 43 26 104 15 61 32 125 17 64 27 111 10 47 11 57 0 7-1 11z"/><path id="N" d="M109 429Q82 429 66 447T50 491Q50 562 103 614T235 666Q326 666 387 610T449 465Q449 422 429 383T381 315T301 241Q265 210 201 149L142 93L218 92Q375 92 385 97Q392 99 409 186V189H449V186Q448 183 436 95T421 3V0H50V19V31Q50 38 56 46T86 81Q115 113 136 137Q145 147 170 174T204 211T233 244T261 278T284 308T305 340T320 369T333 401T340 431T343 464Q343 527 309 573T212 619Q179 619 154 602T119 569T109 550Q109 549 114 549Q132 549 151 535T170 489Q170 464 154 447T109 429Z"/><path id="O" d="M56 237q0 0 0 13 0 13 14 20h299v150l1 150q10 13 19 13 13 0 20-15V270h298q15-8 15-20 0-12-15-20H409V-68q-8-14-18-14h-2-2q-12 0-18 14v298H70q-14 7-14 20z"/><path id="P" d="M21 287q1 6 3 16 2 10 12 38 10 28 20 47 10 19 32 37 22 18 44 17 22-1 43-7 21-6 30-18 9-12 16-22 7-10 8-19l2-7q0-2 1-2l11 11q60 64 141 64 17 0 31-2 14-2 26-7 12-5 19-10 7-5 15-12 8-7 10-13 2-6 8-13 6-7 4-12-2-5 3-9 5-4 2-7l8 10q63 75 149 75 54 0 87-27 33-27 34-79 0-51-38-158-38-107-38-128 1-14 5-19 4-5 15-5 28 0 52 30 24 30 39 82 3 11 6 13 3 2 16 2 20 0 20-8 0-1-4-15-8-29-22-57-14-28-46-56-32-28-69-27-47 0-68 27-21 27-21 56 0 19 36 120 36 101 37 152 0 59-44 59h-5q-86 0-145-101l-7-12-33-134Q433 26 428 16q-13-27-43-27-13 0-21 7-8 7-11 12-3 5-3 10 0 11 34 143l36 146q3 15 3 38 0 59-44 59h-5q-86 0-145-101l-7-12-33-134Q156 26 151 16q-13-27-43-27-13 0-21 6-8 6-11 12-3 6-2 10 0 13 38 164 39 154 39 161 3 15 3 27 0 36-25 36-22 0-37-28-15-28-23-61-8-33-12-36-2-2-16-2H27q-6 6-6 9z"/><path id="Q" d="M33 157q0 101 76 192 76 91 171 92 51 0 90-49 16 30 46 30 13 0 23-8 10-8 10-20 0-13-37-160-37-147-38-166 0-25 7-33 7-8 21-9 9 1 20 9 21 20 41 96 6 20 10 21 2 1 10 1h4q19 0 19-9 0-6-5-27-5-21-20-54-15-33-32-50-13-13-32-21-8-2-24-2-34 0-57 15-23 15-30 31l-6 15q-1 1-4-1-2-2-4-4-59-56-120-56-55 0-97 40-42 40-42 127zm318 171q0 6-5 22-5 16-23 35-18 19-46 20-35 0-67-31-32-31-50-81-29-79-41-164 0-3 0-11 0-8-1-12 0-45 18-62 18-17 43-18 38 0 75 33 37 33 44 51 2 4 27 107 25 103 26 111z"/><path id="R" d="M96 585q56 81 153 81 48 0 96-26 48-26 78-92 37-83 37-228 0-155-43-237-20-42-55-67-35-25-61-31-26-6-51-7-26 0-52 6-26 6-61 32-35 26-55 67-43 82-43 237 0 174 57 265zm225 12q-30 32-71 32-42 0-72-32-25-26-33-72-8-46-8-192 0-158 8-208 8-50 36-79 28-30 69-30 40 0 68 30 29 30 36 84 7 54 8 203 0 145-8 191-8 46-33 73z"/></defs><g transform="scale(1 -1)"><use xlink:href="#A"/><use xlink:href="#B" x="967.8"/><g transform="translate(2023.6)"><use xlink:href="#C"/><use xlink:href="#D" x="389"/><use xlink:href="#E" x="1111.2"/><use xlink:href="#F" x="2111.4"/><use xlink:href="#G" x="2601.4"/></g><use xlink:href="#H" x="5236.2"/><use xlink:href="#I" x="5736.4"/><g transform="translate(6256.4)"><use xlink:href="#C"/><g transform="translate(389)"><use xlink:href="#J"/><use xlink:href="#K" transform="matrix(.707 0 0 .707 572 -150)"/></g><use xlink:href="#L" x="1255"/><g transform="translate(1699.6)"><use xlink:href="#J"/><use xlink:href="#M" transform="matrix(.707 0 0 .707 572 -150)"/></g><use xlink:href="#G" x="2612.9"/><use xlink:href="#N" transform="matrix(.707 0 0 .707 3001.9 477.1)"/></g><use xlink:href="#O" x="9661.9"/><use xlink:href="#O" x="10134.2"/><use xlink:href="#O" x="11134.4"/><use xlink:href="#F" x="11384.4"/><use xlink:href="#H" x="12096.6"/><use xlink:href="#P" x="12596.8"/><use xlink:href="#Q" x="13474.8"/><use xlink:href="#J" x="14003.8"/><g transform="translate(14575.8)"><use xlink:href="#C"/><use xlink:href="#R" x="389"/><use xlink:href="#L" x="889"/><use xlink:href="#P" x="1333.7"/><use xlink:href="#E" x="2433.9"/><use xlink:href="#I" x="3434.1"/><g transform="translate(3954.1)"><use xlink:href="#C"/><g transform="translate(389)"><use xlink:href="#J"/><use xlink:href="#K" transform="matrix(.707 0 0 .707 572 -150)"/></g><use xlink:href="#L" x="1255"/><g transform="translate(1699.6)"><use xlink:href="#J"/><use xlink:href="#M" transform="matrix(.707 0 0 .707 572 -150)"/></g><use xlink:href="#G" x="2612.9"/></g><use xlink:href="#G" x="6956.1"/><use xlink:href="#N" transform="matrix(.707 0 0 .707 7345.1 477.1)"/></g></g></svg>

<?xml version="1.0" encoding="UTF-8" standalone="no" ?>
<svg xmlns="http://www.w3.org/2000/svg" width="404.064px" height="22.480px" viewBox="0 -948 22324.4 1242.2" xmlns:xlink="http://www.w3.org/1999/xlink"><defs><path id="MJX-4-TEX-C-4C" d="M62 -22T47 -22T32 -11Q32 -1 56 24T83 55Q113 96 138 172T180 320T234 473T323 609Q364 649 419 677T531 705Q559 705 578 696T604 671T615 645T618 623V611Q618 582 615 571T598 548Q581 531 558 520T518 509Q503 509 503 520Q503 523 505 536T507 560Q507 590 494 610T452 630Q423 630 410 617Q367 578 333 492T271 301T233 170Q211 123 204 112L198 103L224 102Q281 102 369 79T509 52H523Q535 64 544 87T579 128Q616 152 641 152Q656 152 656 142Q656 101 588 40T433 -22Q381 -22 289 1T156 28L141 29L131 20Q111 0 87 -11Z"></path><path id="MJX-4-TEX-N-3D" d="M56 347Q56 360 70 367H707Q722 359 722 347Q722 336 708 328L390 327H72Q56 332 56 347ZM56 153Q56 168 72 173H708Q722 163 722 153Q722 140 707 133H70Q56 140 56 153Z"></path><path id="MJX-4-TEX-N-28" d="M94 250Q94 319 104 381T127 488T164 576T202 643T244 695T277 729T302 750H315H319Q333 750 333 741Q333 738 316 720T275 667T226 581T184 443T167 250T184 58T225 -81T274 -167T316 -220T333 -241Q333 -250 318 -250H315H302L274 -226Q180 -141 137 -14T94 250Z"></path><path id="MJX-4-TEX-N-31" d="M213 578L200 573Q186 568 160 563T102 556H83V602H102Q149 604 189 617T245 641T273 663Q275 666 285 666Q294 666 302 660V361L303 61Q310 54 315 52T339 48T401 46H427V0H416Q395 3 257 3Q121 3 100 0H88V46H114Q136 46 152 46T177 47T193 50T201 52T207 57T213 61V578Z"></path><path id="MJX-4-TEX-N-2212" d="M84 237T84 250T98 270H679Q694 262 694 250T679 230H98Q84 237 84 250Z"></path><path id="MJX-4-TEX-I-79" d="M21 287Q21 301 36 335T84 406T158 442Q199 442 224 419T250 355Q248 336 247 334Q247 331 231 288T198 191T182 105Q182 62 196 45T238 27Q261 27 281 38T312 61T339 94Q339 95 344 114T358 173T377 247Q415 397 419 404Q432 431 462 431Q475 431 483 424T494 412T496 403Q496 390 447 193T391 -23Q363 -106 294 -155T156 -205Q111 -205 77 -183T43 -117Q43 -95 50 -80T69 -58T89 -48T106 -45Q150 -45 150 -87Q150 -107 138 -122T115 -142T102 -147L99 -148Q101 -153 118 -160T152 -167H160Q177 -167 186 -165Q219 -156 247 -127T290 -65T313 -9T321 21L315 17Q309 13 296 6T270 -6Q250 -11 231 -11Q185 -11 150 11T104 82Q103 89 103 113Q103 170 138 262T173 379Q173 380 173 381Q173 390 173 393T169 400T158 404H154Q131 404 112 385T82 344T65 302T57 280Q55 278 41 278H27Q21 284 21 287Z"></path><path id="MJX-4-TEX-N-29" d="M60 749L64 750Q69 750 74 750H86L114 726Q208 641 251 514T294 250Q294 182 284 119T261 12T224 -76T186 -143T145 -194T113 -227T90 -246Q87 -249 86 -250H74Q66 -250 63 -250T58 -247T55 -238Q56 -237 66 -225Q221 -64 221 250T66 725Q56 737 55 738Q55 746 60 749Z"></path><path id="MJX-4-TEX-N-22C5" d="M78 250Q78 274 95 292T138 310Q162 310 180 294T199 251Q199 226 182 208T139 190T96 207T78 250Z"></path><path id="MJX-4-TEX-I-64" d="M366 683Q367 683 438 688T511 694Q523 694 523 686Q523 679 450 384T375 83T374 68Q374 26 402 26Q411 27 422 35Q443 55 463 131Q469 151 473 152Q475 153 483 153H487H491Q506 153 506 145Q506 140 503 129Q490 79 473 48T445 8T417 -8Q409 -10 393 -10Q359 -10 336 5T306 36L300 51Q299 52 296 50Q294 48 292 46Q233 -10 172 -10Q117 -10 75 30T33 157Q33 205 53 255T101 341Q148 398 195 420T280 442Q336 442 364 400Q369 394 369 396Q370 400 396 505T424 616Q424 629 417 632T378 637H357Q351 643 351 645T353 664Q358 683 366 683ZM352 326Q329 405 277 405Q242 405 210 374T160 293Q131 214 119 129Q119 126 119 118T118 106Q118 61 136 44T179 26Q233 26 290 98L298 109L352 326Z"></path><path id="MJX-4-TEX-I-78" d="M52 289Q59 331 106 386T222 442Q257 442 286 424T329 379Q371 442 430 442Q467 442 494 420T522 361Q522 332 508 314T481 292T458 288Q439 288 427 299T415 328Q415 374 465 391Q454 404 425 404Q412 404 406 402Q368 386 350 336Q290 115 290 78Q290 50 306 38T341 26Q378 26 414 59T463 140Q466 150 469 151T485 153H489Q504 153 504 145Q504 144 502 134Q486 77 440 33T333 -11Q263 -11 227 52Q186 -10 133 -10H127Q78 -10 57 16T35 71Q35 103 54 123T99 143Q142 143 142 101Q142 81 130 66T107 46T94 41L91 40Q91 39 97 36T113 29T132 26Q168 26 194 71Q203 87 217 139T245 247T261 313Q266 340 266 352Q266 380 251 392T217 404Q177 404 142 372T93 290Q91 281 88 280T72 278H58Q52 284 52 289Z"></path><path id="MJX-4-TEX-I-69" d="M184 600Q184 624 203 642T247 661Q265 661 277 649T290 619Q290 596 270 577T226 557Q211 557 198 567T184 600ZM21 287Q21 295 30 318T54 369T98 420T158 442Q197 442 223 419T250 357Q250 340 236 301T196 196T154 83Q149 61 149 51Q149 26 166 26Q175 26 185 29T208 43T235 78T260 137Q263 149 265 151T282 153Q302 153 302 143Q302 135 293 112T268 61T223 11T161 -11Q129 -11 102 10T74 74Q74 91 79 106T122 220Q160 321 166 341T173 380Q173 404 156 404H154Q124 404 99 371T61 287Q60 286 59 284T58 281T56 279T53 278T49 278T41 278H27Q21 284 21 287Z"></path><path id="MJX-4-TEX-N-2C" d="M78 35T78 60T94 103T137 121Q165 121 187 96T210 8Q210 -27 201 -60T180 -117T154 -158T130 -185T117 -194Q113 -194 104 -185T95 -172Q95 -168 106 -156T131 -126T157 -76T173 -3V9L172 8Q170 7 167 6T161 3T152 1T140 0Q113 0 96 17Z"></path><path id="MJX-4-TEX-I-6A" d="M297 596Q297 627 318 644T361 661Q378 661 389 651T403 623Q403 595 384 576T340 557Q322 557 310 567T297 596ZM288 376Q288 405 262 405Q240 405 220 393T185 362T161 325T144 293L137 279Q135 278 121 278H107Q101 284 101 286T105 299Q126 348 164 391T252 441Q253 441 260 441T272 442Q296 441 316 432Q341 418 354 401T367 348V332L318 133Q267 -67 264 -75Q246 -125 194 -164T75 -204Q25 -204 7 -183T-12 -137Q-12 -110 7 -91T53 -71Q70 -71 82 -81T95 -112Q95 -148 63 -167Q69 -168 77 -168Q111 -168 139 -140T182 -74L193 -32Q204 11 219 72T251 197T278 308T289 365Q289 372 288 376Z"></path><path id="MJX-4-TEX-N-32" d="M109 429Q82 429 66 447T50 491Q50 562 103 614T235 666Q326 666 387 610T449 465Q449 422 429 383T381 315T301 241Q265 210 201 149L142 93L218 92Q375 92 385 97Q392 99 409 186V189H449V186Q448 183 436 95T421 3V0H50V19V31Q50 38 56 46T86 81Q115 113 136 137Q145 147 170 174T204 211T233 244T261 278T284 308T305 340T320 369T333 401T340 431T343 464Q343 527 309 573T212 619Q179 619 154 602T119 569T109 550Q109 549 114 549Q132 549 151 535T170 489Q170 464 154 447T109 429Z"></path><path id="MJX-4-TEX-N-A0" d=""></path><path id="MJX-4-TEX-N-2B" d="M56 237T56 250T70 270H369V420L370 570Q380 583 389 583Q402 583 409 568V270H707Q722 262 722 250T707 230H409V-68Q401 -82 391 -82H389H387Q375 -82 369 -68V230H70Q56 237 56 250Z"></path><path id="MJX-4-TEX-I-6D" d="M21 287Q22 293 24 303T36 341T56 388T88 425T132 442T175 435T205 417T221 395T229 376L231 369Q231 367 232 367L243 378Q303 442 384 442Q401 442 415 440T441 433T460 423T475 411T485 398T493 385T497 373T500 364T502 357L510 367Q573 442 659 442Q713 442 746 415T780 336Q780 285 742 178T704 50Q705 36 709 31T724 26Q752 26 776 56T815 138Q818 149 821 151T837 153Q857 153 857 145Q857 144 853 130Q845 101 831 73T785 17T716 -10Q669 -10 648 17T627 73Q627 92 663 193T700 345Q700 404 656 404H651Q565 404 506 303L499 291L466 157Q433 26 428 16Q415 -11 385 -11Q372 -11 364 -4T353 8T350 18Q350 29 384 161L420 307Q423 322 423 345Q423 404 379 404H374Q288 404 229 303L222 291L189 157Q156 26 151 16Q138 -11 108 -11Q95 -11 87 -5T76 7T74 17Q74 30 112 181Q151 335 151 342Q154 357 154 369Q154 405 129 405Q107 405 92 377T69 316T57 280Q55 278 41 278H27Q21 284 21 287Z"></path><path id="MJX-4-TEX-I-61" d="M33 157Q33 258 109 349T280 441Q331 441 370 392Q386 422 416 422Q429 422 439 414T449 394Q449 381 412 234T374 68Q374 43 381 35T402 26Q411 27 422 35Q443 55 463 131Q469 151 473 152Q475 153 483 153H487Q506 153 506 144Q506 138 501 117T481 63T449 13Q436 0 417 -8Q409 -10 393 -10Q359 -10 336 5T306 36L300 51Q299 52 296 50Q294 48 292 46Q233 -10 172 -10Q117 -10 75 30T33 157ZM351 328Q351 334 346 350T323 385T277 405Q242 405 210 374T160 293Q131 214 119 129Q119 126 119 118T118 106Q118 61 136 44T179 26Q217 26 254 59T298 110Q300 114 325 217T351 328Z"></path><path id="MJX-4-TEX-N-30" d="M96 585Q152 666 249 666Q297 666 345 640T423 548Q460 465 460 320Q460 165 417 83Q397 41 362 16T301 -15T250 -22Q224 -22 198 -16T137 16T82 83Q39 165 39 320Q39 494 96 585ZM321 597Q291 629 250 629Q208 629 178 597Q153 571 145 525T137 333Q137 175 145 125T181 46Q209 16 250 16Q290 16 318 46Q347 76 354 130T362 333Q362 478 354 524T321 597Z"></path></defs><g stroke="currentColor" fill="currentColor" stroke-width="0" transform="matrix(1 0 0 -1 0 0)"><g data-mml-node="math"><g data-mml-node="TeXAtom"><g data-mml-node="mi"><use xlink:href="#MJX-4-TEX-C-4C"></use></g></g><g data-mml-node="mo" transform="translate(967.8, 0)"><use xlink:href="#MJX-4-TEX-N-3D"></use></g><g data-mml-node="mrow" transform="translate(2023.6, 0)"><g data-mml-node="mo"><use xlink:href="#MJX-4-TEX-N-28"></use></g><g data-mml-node="mn" transform="translate(389, 0)"><use xlink:href="#MJX-4-TEX-N-31"></use></g><g data-mml-node="mo" transform="translate(1111.2, 0)"><use xlink:href="#MJX-4-TEX-N-2212"></use></g><g data-mml-node="mi" transform="translate(2111.4, 0)"><use xlink:href="#MJX-4-TEX-I-79"></use></g><g data-mml-node="mo" transform="translate(2601.4, 0)"><use xlink:href="#MJX-4-TEX-N-29"></use></g></g><g data-mml-node="mo" transform="translate(5236.2, 0)"><use xlink:href="#MJX-4-TEX-N-22C5"></use></g><g data-mml-node="mi" transform="translate(5736.4, 0)"><use xlink:href="#MJX-4-TEX-I-64"></use></g><g data-mml-node="msup" transform="translate(6256.4, 0)"><g data-mml-node="mrow"><g data-mml-node="mo"><use xlink:href="#MJX-4-TEX-N-28"></use></g><g data-mml-node="msub" transform="translate(389, 0)"><g data-mml-node="mi"><use xlink:href="#MJX-4-TEX-I-78"></use></g><g data-mml-node="mi" transform="translate(572, -150) scale(0.707)"><use xlink:href="#MJX-4-TEX-I-69"></use></g></g><g data-mml-node="mo" transform="translate(1255, 0)"><use xlink:href="#MJX-4-TEX-N-2C"></use></g><g data-mml-node="msub" transform="translate(1699.6, 0)"><g data-mml-node="mi"><use xlink:href="#MJX-4-TEX-I-78"></use></g><g data-mml-node="mi" transform="translate(572, -150) scale(0.707)"><use xlink:href="#MJX-4-TEX-I-6A"></use></g></g><g data-mml-node="mo" transform="translate(2612.9, 0)"><use xlink:href="#MJX-4-TEX-N-29"></use></g></g><g data-mml-node="mn" transform="translate(3001.9, 477.1) scale(0.707)"><use xlink:href="#MJX-4-TEX-N-32"></use></g></g><g data-mml-node="mtext" transform="translate(9661.9, 0)"><use xlink:href="#MJX-4-TEX-N-A0"></use></g><g data-mml-node="mo" transform="translate(10134.2, 0)"><use xlink:href="#MJX-4-TEX-N-2B"></use></g><g data-mml-node="mtext" transform="translate(11134.4, 0)"><use xlink:href="#MJX-4-TEX-N-A0"></use></g><g data-mml-node="mi" transform="translate(11384.4, 0)"><use xlink:href="#MJX-4-TEX-I-79"></use></g><g data-mml-node="mo" transform="translate(12096.6, 0)"><use xlink:href="#MJX-4-TEX-N-22C5"></use></g><g data-mml-node="mi" transform="translate(12596.8, 0)"><use xlink:href="#MJX-4-TEX-I-6D"></use></g><g data-mml-node="mi" transform="translate(13474.8, 0)"><use xlink:href="#MJX-4-TEX-I-61"></use></g><g data-mml-node="mi" transform="translate(14003.8, 0)"><use xlink:href="#MJX-4-TEX-I-78"></use></g><g data-mml-node="msup" transform="translate(14575.8, 0)"><g data-mml-node="mrow"><g data-mml-node="mo"><use xlink:href="#MJX-4-TEX-N-28"></use></g><g data-mml-node="mn" transform="translate(389, 0)"><use xlink:href="#MJX-4-TEX-N-30"></use></g><g data-mml-node="mo" transform="translate(889, 0)"><use xlink:href="#MJX-4-TEX-N-2C"></use></g><g data-mml-node="mi" transform="translate(1333.7, 0)"><use xlink:href="#MJX-4-TEX-I-6D"></use></g><g data-mml-node="mo" transform="translate(2433.9, 0)"><use xlink:href="#MJX-4-TEX-N-2212"></use></g><g data-mml-node="mi" transform="translate(3434.1, 0)"><use xlink:href="#MJX-4-TEX-I-64"></use></g><g data-mml-node="mrow" transform="translate(3954.1, 0)"><g data-mml-node="mo"><use xlink:href="#MJX-4-TEX-N-28"></use></g><g data-mml-node="msub" transform="translate(389, 0)"><g data-mml-node="mi"><use xlink:href="#MJX-4-TEX-I-78"></use></g><g data-mml-node="mi" transform="translate(572, -150) scale(0.707)"><use xlink:href="#MJX-4-TEX-I-69"></use></g></g><g data-mml-node="mo" transform="translate(1255, 0)"><use xlink:href="#MJX-4-TEX-N-2C"></use></g><g data-mml-node="msub" transform="translate(1699.6, 0)"><g data-mml-node="mi"><use xlink:href="#MJX-4-TEX-I-78"></use></g><g data-mml-node="mi" transform="translate(572, -150) scale(0.707)"><use xlink:href="#MJX-4-TEX-I-6A"></use></g></g><g data-mml-node="mo" transform="translate(2612.9, 0)"><use xlink:href="#MJX-4-TEX-N-29"></use></g></g><g data-mml-node="mo" transform="translate(6956.1, 0)"><use xlink:href="#MJX-4-TEX-N-29"></use></g></g><g data-mml-node="mn" transform="translate(7345.1, 477.1) scale(0.707)"><use xlink:href="#MJX-4-TEX-N-32"></use></g></g></g></g></svg>
